X: 1995
T: As I Went Out Upon The Ice
R: polka
M: 2/4
K: Adorian
|:g>f|"Am" eA BA|eA AB/d/|eA BA|"G" G2 Gg/f/|
"Am" eA BA|eA BA|"G" GB dB|"Am" A2:|
|:AB/d/|"Am" ea ab|"Em" ag g/e/d|"G" Bd ef|"Em" ga/g/ "D7" fg/f/|
"Am" ea ab/g/|"Em" ag ed|"G" Bd "Em" gB|"Am" A2:|

